app/images/dinologo.svg

<svg width="22" height="23" viewBox="0 0 22 23" version="1.1" xmlns="http://www.w3.org/2000/svg" xmlns:xlink="http://www.w3.org/1999/xlink">
<title>dinologo</title>
<desc>Created using Figma</desc>
<g id="Canvas" transform="translate(-4626 -130)">
<g id="dinologo">
<g id="Page 1">
<g id="&#208;&#167;&#209;&#130;&#208;&#190; &#209;&#130;&#208;&#176;&#208;&#186;&#208;&#190;&#208;&#181; &#208;&#163;&#209;&#135;&#208;&#184;.&#209;&#128;&#209;&#131; 1024 1440">
<g id="What is olymp">
<g id="Table">
<g id="Page 1">
<g id="Group 3">
<g id="Fill 1">
<use xlink:href="#path0_fill" transform="translate(4626 130.875)" fill="#6FC4E2"/>
</g>
</g>
<g id="Fill 4">
<use xlink:href="#path1_fill" transform="translate(4626.04 138.899)" fill="#0D1013"/>
</g>
<g id="Group 12">
<g id="Group 8">
<mask id="mask0_alpha" mask-type="alpha">
<g id="mask 2">
<g id="Vector">
<use xlink:href="#path2_fill" transform="translate(4628.93 138.498)" fill="#FFFFFF"/>
</g>
</g>
</mask>
<g id="Fill 6" mask="url(#mask0_alpha)">
<use xlink:href="#path3_fill" transform="translate(4619.75 138.497)" fill="#FF5767"/>
</g>
</g>
<g id="Group 11">
<mask id="mask1_alpha" mask-type="alpha">
<g id="mask 4">
<g id="Vector">
<use xlink:href="#path4_fill" transform="translate(4629.22 141.547)" fill="#FFFFFF"/>
</g>
</g>
</mask>
<g id="Fill 9" mask="url(#mask1_alpha)">
<use xlink:href="#path5_fill" transform="translate(4620.77 141.547)" fill="#FFC500"/>
</g>
</g>
</g>
<g id="Group 43">
<g id="Fill 13">
<use xlink:href="#path6_fill" transform="translate(4628.98 137.988)" fill="#FF5767"/>
</g>
<g id="Fill 15">
<use xlink:href="#path7_fill" transform="translate(4641.83 136.944)" fill="#FF5767"/>
</g>
<g id="Fill 17">
<use xlink:href="#path8_fill" transform="translate(4643.02 137.951)" fill="#0D1013"/>
</g>
<g id="Fill 19">
<use xlink:href="#path9_fill" transform="translate(4643.97 138.513)" fill="#FF5767"/>
</g>
<g id="Fill 21">
<use xlink:href="#path10_fill" transform="translate(4645.16 139.32)" fill="#0D1013"/>
</g>
<g id="Fill 23">
<use xlink:href="#path11_fill" transform="translate(4629.33 131.642)" fill="#0D1013"/>
</g>
<g id="Fill 25">
<use xlink:href="#path12_fill" transform="translate(4635.85 131.683)" fill="#0D1013"/>
</g>
<g id="Fill 27">
<use xlink:href="#path13_fill" transform="translate(4628.43 134.081)" fill="#6F568E"/>
</g>
<g id="Fill 29">
<use xlink:href="#path14_fill" transform="translate(4633.04 133.804)" fill="#6F568E"/>
</g>
<g id="Fill 31">
<use xlink:href="#path15_fill" transform="translate(4629.53 135.182)" fill="#FFFFFF"/>
</g>
<g id="Fill 33">
<use xlink:href="#path16_fill" transform="translate(4630.57 136.229)" fill="#0D1013"/>
</g>
<g id="Fill 35">
<use xlink:href="#path17_fill" transform="translate(4634.14 134.908)" fill="#FFFFFF"/>
</g>
<g id="Fill 37">
<use xlink:href="#path18_fill" transform="translate(4635.18 135.953)" fill="#0D1013"/>
</g>
<g id="Fill 39">
<use xlink:href="#path19_fill" transform="translate(4631.77 144.184)" fill="#FFFFFF"/>
</g>
<g id="Fill 41">
<use xlink:href="#path20_fill" transform="translate(4632.26 145.695)" fill="#FFFFFF"/>
</g>
</g>
</g>
</g>
</g>
</g>
</g>
</g>
</g>
<defs>
<path id="path0_fill" fill-rule="evenodd" d="M 19.1805 4.3299e-09L 2.81953 4.3299e-09C 1.2625 4.3299e-09 -1.07506e-09 1.26214 -1.07506e-09 2.81953L -1.07506e-09 19.1805C -1.07506e-09 20.7375 1.2625 22 2.81953 22L 19.1805 22C 20.7375 22 22 20.7375 22 19.1805L 22 2.81953C 22 1.26214 20.7375 4.3299e-09 19.1805 4.3299e-09Z"/>
<path id="path1_fill" fill-rule="evenodd" d="M 4.1855 12.3067L 1.79373 10.7057L 3.38837 8.70491L 0.946733 6.90363L 3.1889 4.40252L 1.90573e-09 2.45141L 3.0393 -1.45352e-07L 4.1855 12.3067Z"/>
<path id="path2_fill" d="M 0.000917103 3.32744e-06C 0.124267 0.0243279 12.4072 2.4612 12.4072 8.30456C 12.4072 9.02758 12.1817 11.5195 11.899 14.3442L 1.20705 14.3442C 0.80117 7.96289 0.00438744 0.0435895 3.33882e-10 -2.57911e-09L 0.000917103 3.32744e-06Z"/>
<path id="path3_fill" fill-rule="evenodd" d="M 9.17908 8.06697e-10C 9.17908 8.06697e-10 10.6179 14.2888 10.6179 19.9757C 10.6179 22.0652 10.4606 24.0388 9.60698 24.778C 8.66245 25.596 6.55521 26.4773 4.76258 27.884C 3.65011 28.7572 2.98498 29.3407 2.39391 29.9418C -0.261488 32.6425 0.00764537 33.6055 0.00764537 33.6055C 0.00764537 33.6055 2.19665 31.7899 10.5713 30.8603L 12.6404 30.4591C 13.9138 30.2165 16.5069 29.0749 16.8864 28.7145C 18.8543 27.5033 19.8417 25.7278 20.0914 23.5628C 20.4768 20.2216 21.5863 9.90907 21.5863 8.30474C 21.5863 2.4319 9.17908 8.06697e-10 9.17908 8.06697e-10Z"/>
<path id="path4_fill" d="M 8.10923 -9.2132e-10C 10.327 1.29279 12.1141 3.02606 12.1141 5.25497C 12.1141 5.97799 11.8886 8.46989 11.6059 11.2946L 0.913952 11.2946C 0.66532 7.38556 0.270001 2.89938 1.10242e-08 -9.2132e-10L 8.10923 -9.2132e-10Z"/>
<path id="path5_fill" fill-rule="evenodd" d="M 9.5381 33.175L 20.8993 22.7657L 21.4474 5.45634C 21.4474 5.45634 22.3439 0.168827 16.5642 0.00316669C 12.375 -0.116845 11.3227 3.21035 13.475 3.85532C 13.475 3.85532 14.2047 16.3174 14.0635 19.0902C 13.9557 21.2062 13.5274 22.565 11.7282 23.7762C 7.92696 26.3343 3.67473 26.3634 2.17063e-07 29.9885"/>
<path id="path6_fill" fill-rule="evenodd" d="M 10.839 10.2677C 10.839 10.2677 12.1722 10.3292 13.5293 10.2707C 15.0044 10.207 16.4498 9.918 16.5007 10.0295C 16.5011 10.0303 16.9576 7.39775 16.6291 3.62253C 16.3009 -0.14864 12.7255 -0.184348 7.1808 0.110527C 5.06037 0.223177 -1.64082e-08 0.460624 -1.64082e-08 0.460624C -1.64082e-08 0.460624 0.845167 3.07696 2.17617 5.82066C 4.28597 10.1705 10.8387 10.2685 10.839 10.2677Z"/>
<path id="path7_fill" fill-rule="evenodd" d="M 2.2093 0.0347233C 3.0453 0.240142 3.46073 1.3 3.13733 2.4022C 2.81393 3.50439 1.8738 4.23146 1.0378 4.02604C 0.201799 3.82099 -0.213634 2.76076 0.109766 1.65856C 0.433166 0.55637 1.3733 -0.170696 2.2093 0.0347233Z"/>
<path id="path8_fill" fill-rule="evenodd" d="M 1.00719 0.0373417C 1.30016 0.178337 1.37459 0.677527 1.17329 1.15242C 0.97236 1.62731 0.571961 1.89789 0.279361 1.7569C -0.0136059 1.6159 -0.08804 1.11671 0.112893 0.641818C 0.313827 0.166925 0.714227 -0.103654 1.00719 0.0373417Z"/>
<path id="path9_fill" fill-rule="evenodd" d="M 2.89041 0.187767C 3.52071 0.615171 3.48551 1.63564 2.81157 2.46652C 2.13801 3.2974 1.08091 3.6243 0.450605 3.1969C -0.179695 2.76913 -0.144495 1.74903 0.529438 0.918146C 1.203 0.0872667 2.26011 -0.239637 2.89041 0.187767Z"/>
<path id="path10_fill" fill-rule="evenodd" d="M 1.22576 0.0948471C 1.45053 0.286277 1.38893 0.703741 1.0879 1.0277C 0.786863 1.35166 0.36043 1.45915 0.135296 1.26809C -0.0894702 1.07666 -0.0278707 0.658829 0.273163 0.334871C 0.574563 0.0109123 1.001 -0.0965828 1.22576 0.0948471Z"/>
<path id="path11_fill" fill-rule="evenodd" d="M 1.67482 0.0167048C 2.18192 -0.0488231 2.56949 0.0781833 2.66335 0.402142C 2.75722 0.7261 2.41512 1.06773 2.11409 1.17301C 1.81305 1.2783 1.09219 1.99175 0.90592 2.16403C 0.72002 2.33632 0.323287 2.3319 0.137387 2.16403C -0.0485131 1.99616 -0.0239464 1.64128 0.0823869 1.39316C 0.343087 0.784633 0.91912 0.114629 1.67482 0.0167048Z"/>
<path id="path12_fill" fill-rule="evenodd" d="M 0.953767 0.000689465C 0.440067 -0.0121952 0.066434 0.155674 0.00630063 0.490677C -0.053466 0.826047 0.323834 1.13344 0.6355 1.2078C 0.947167 1.28217 1.74173 1.92346 1.9456 2.07734C 2.14947 2.23085 2.54547 2.18483 2.71377 1.99708C 2.88207 1.80897 2.82047 1.45519 2.6881 1.21701C 2.36433 0.633145 1.719 0.0202006 0.953767 0.000689465Z"/>
<path id="path13_fill" fill-rule="evenodd" d="M 3.07523 2.88053e-08C 4.77363 2.88053e-08 6.15047 1.38014 6.15047 3.08313C 6.15047 4.78575 4.77363 6.16588 3.07523 6.16588C 1.37683 6.16588 -4.50878e-09 4.78575 -4.50878e-09 3.08313C -4.50878e-09 1.38014 1.37683 2.88053e-08 3.07523 2.88053e-08Z"/>
<path id="path14_fill" fill-rule="evenodd" d="M 3.07523 -4.12804e-08C 4.77363 -4.12804e-08 6.15047 1.3805 6.15047 3.08386C 6.15047 4.78685 4.77363 6.16736 3.07523 6.16736C 1.37683 6.16736 6.14849e-08 4.78685 6.14849e-08 3.08386C 6.14849e-08 1.3805 1.37683 -4.12804e-08 3.07523 -4.12804e-08Z"/>
<path id="path15_fill" fill-rule="evenodd" d="M 1.9767 -1.19698e-07C 3.06827 -1.19698e-07 3.9534 0.887572 3.9534 1.9824C 3.9534 3.07724 3.06827 3.96481 1.9767 3.96481C 0.885133 3.96481 3.48072e-08 3.07724 3.48072e-08 1.9824C 3.48072e-08 0.887572 0.885133 -1.19698e-07 1.9767 -1.19698e-07Z"/>
<path id="path16_fill" fill-rule="evenodd" d="M 0.933533 1.90178e-07C 1.44907 1.90178e-07 1.86707 0.418937 1.86707 0.935798C 1.86707 1.45229 1.44907 1.87123 0.933533 1.87123C 0.418 1.87123 6.44432e-08 1.45229 6.44432e-08 0.935798C 6.44432e-08 0.418937 0.418 1.90178e-07 0.933533 1.90178e-07Z"/>
<path id="path17_fill" fill-rule="evenodd" d="M 1.9767 5.4012e-08C 3.06827 5.4012e-08 3.9534 0.887572 3.9534 1.9824C 3.9534 3.07724 3.06827 3.96481 1.9767 3.96481C 0.885134 3.96481 2.55558e-07 3.07724 2.55558e-07 1.9824C 2.55558e-07 0.887572 0.885134 5.4012e-08 1.9767 5.4012e-08Z"/>
<path id="path18_fill" fill-rule="evenodd" d="M 0.933533 9.36139e-08C 1.44907 9.36139e-08 1.86707 0.418937 1.86707 0.935798C 1.86707 1.45229 1.44907 1.87123 0.933533 1.87123C 0.418 1.87123 1.7032e-07 1.45229 1.7032e-07 0.935798C 1.7032e-07 0.418937 0.418 9.36139e-08 0.933533 9.36139e-08Z"/>
<path id="path19_fill" fill-rule="evenodd" d="M 9.47987 4.09851C 8.20937 4.08746 6.11937 3.8467 4.23067 3.19916C 2.74787 2.69076 0.895101 1.7557 0.490301 0.187449C 0.455834 0.0538159 0.319801 -0.0268064 0.186701 0.00816638C 0.053601 0.042771 -0.0266991 0.17935 0.00813421 0.312983C 0.831301 3.50176 6.625 4.56567 9.43917 4.59696C 9.44357 4.57119 9.4872 4.12428 9.47987 4.09851Z"/>
<path id="path20_fill" fill-rule="evenodd" d="M 0.116233 -1.35239e-07L 5.47279e-08 2.26697L 2.35363 1.65918L 3.1581 3.73546L 5.2954 2.63768L 6.5406 4.47394L 8.272 2.96054L 7.64427 2.73561L 4.5936 2.19519L 2.1802 1.35731L 0.116233 -1.35239e-07Z"/>
</defs>
</svg>

<svg width="22" height="23" viewBox="0 0 22 23" xmlns="http://www.w3.org/2000/svg" xmlns:xlink="http://www.w3.org/1999/xlink"><title>dinologo</title><desc>Created using Figma</desc><use xlink:href="#a" transform="translate(0 .875)" fill="#6FC4E2"/><use xlink:href="#b" transform="translate(.04 8.899)" fill="#0D1013"/><g transform="translate(-4626 -130)"><mask id="d"><use xlink:href="#c" transform="translate(4628.93 138.498)" fill="#FFF"/></mask><g mask="url(#d)"><use xlink:href="#e" transform="translate(4619.75 138.497)" fill="#FF5767"/></g></g><g transform="translate(-4626 -130)"><mask id="g"><use xlink:href="#f" transform="translate(4629.22 141.547)" fill="#FFF"/></mask><g mask="url(#g)"><use xlink:href="#h" transform="translate(4620.77 141.547)" fill="#FFC500"/></g></g><use xlink:href="#i" transform="translate(2.98 7.988)" fill="#FF5767"/><use xlink:href="#j" transform="translate(15.83 6.944)" fill="#FF5767"/><use xlink:href="#k" transform="translate(17.02 7.951)" fill="#0D1013"/><use xlink:href="#l" transform="translate(17.97 8.513)" fill="#FF5767"/><use xlink:href="#m" transform="translate(19.16 9.32)" fill="#0D1013"/><use xlink:href="#n" transform="translate(3.33 1.642)" fill="#0D1013"/><use xlink:href="#o" transform="translate(9.85 1.683)" fill="#0D1013"/><use xlink:href="#p" transform="translate(2.43 4.081)" fill="#6F568E"/><use xlink:href="#q" transform="translate(7.04 3.804)" fill="#6F568E"/><use xlink:href="#r" transform="translate(3.53 5.182)" fill="#FFF"/><use xlink:href="#s" transform="translate(4.57 6.229)" fill="#0D1013"/><use xlink:href="#t" transform="translate(8.14 4.908)" fill="#FFF"/><use xlink:href="#u" transform="translate(9.18 5.953)" fill="#0D1013"/><use xlink:href="#v" transform="translate(5.77 14.184)" fill="#FFF"/><use xlink:href="#w" transform="translate(6.26 15.695)" fill="#FFF"/><defs><path id="a" fill-rule="evenodd" d="M19.18 0H2.82A2.82 2.82 0 0 0 0 2.82v16.36A2.82 2.82 0 0 0 2.82 22h16.36A2.82 2.82 0 0 0 22 19.18V2.82A2.82 2.82 0 0 0 19.18 0z"/><path id="b" fill-rule="evenodd" d="M4.186 12.307l-2.392-1.601 1.594-2.001L.947 6.904l2.242-2.501L0 2.45 3.04 0l1.146 12.307z"/><path id="c" d="M0 0c.124.024 12.407 2.461 12.407 8.305 0 .723-.225 3.215-.508 6.04H1.207C.801 7.962.004.043 0 0z"/><path id="e" fill-rule="evenodd" d="M9.18 0s1.438 14.289 1.438 19.976c0 2.09-.157 4.063-1.011 4.802-.945.818-3.052 1.7-4.844 3.106-1.113.873-1.778 1.457-2.37 2.058-2.654 2.7-2.385 3.663-2.385 3.663S2.197 31.79 10.57 30.86l2.07-.4c1.273-.244 3.866-1.385 4.245-1.745 1.968-1.212 2.956-2.987 3.205-5.152.386-3.341 1.495-13.654 1.495-15.258C21.586 2.432 9.18 0 9.18 0z"/><path id="f" d="M8.11 0c2.217 1.293 4.004 3.026 4.004 5.255 0 .723-.225 3.215-.508 6.04H.914C.665 7.385.27 2.899 0 0h8.11z"/><path id="h" fill-rule="evenodd" d="M9.538 33.175L20.9 22.765l.548-17.309S22.344.17 16.564.003c-4.189-.12-5.241 3.207-3.089 3.852 0 0 .73 12.462.588 15.235-.107 2.116-.536 3.475-2.335 4.686C7.927 26.334 3.675 26.363 0 29.988"/><path id="i" fill-rule="evenodd" d="M10.839 10.268s1.333.061 2.69.003c1.475-.064 2.92-.353 2.972-.242 0 .001.457-2.631.128-6.406C16.301-.15 12.725-.184 7.181.11 5.06.223 0 .46 0 .46s.845 2.616 2.176 5.36c2.11 4.35 8.663 4.447 8.663 4.447z"/><path id="j" fill-rule="evenodd" d="M2.21.035c.835.205 1.25 1.265.927 2.367-.323 1.102-1.263 1.83-2.1 1.624C.203 3.821-.212 2.761.11 1.659.433.556 1.373-.171 2.21.035z"/><path id="k" fill-rule="evenodd" d="M1.007.037c.293.141.368.64.166 1.115-.2.475-.601.746-.894.605-.293-.141-.367-.64-.166-1.115.2-.475.601-.746.894-.605z"/><path id="l" fill-rule="evenodd" d="M2.89.188c.63.427.596 1.448-.078 2.279-.674.83-1.731 1.157-2.361.73-.63-.428-.595-1.448.078-2.279C1.203.088 2.26-.24 2.89.188z"/><path id="m" fill-rule="evenodd" d="M1.226.095c.225.191.163.609-.138.933-.301.324-.728.431-.953.24-.224-.191-.163-.61.138-.933.302-.324.728-.432.953-.24z"/><path id="n" fill-rule="evenodd" d="M1.675.017c.507-.066.894.061.988.385.094.324-.248.666-.549.771-.3.105-1.022.819-1.208.991-.186.172-.583.168-.769 0-.186-.168-.16-.523-.055-.77C.343.783.92.113 1.675.016z"/><path id="o" fill-rule="evenodd" d="M.954 0C.44-.011.066.157.006.49c-.06.336.318.643.63.718.311.074 1.106.715 1.31.87.203.153.6.107.768-.08.168-.189.106-.543-.026-.781C2.364.633 1.72.02.954.001z"/><path id="p" fill-rule="evenodd" d="M3.075 0A3.08 3.08 0 0 1 6.15 3.083a3.079 3.079 0 0 1-3.075 3.083A3.079 3.079 0 0 1 0 3.083 3.079 3.079 0 0 1 3.075 0z"/><path id="q" fill-rule="evenodd" d="M3.075 0A3.08 3.08 0 0 1 6.15 3.084a3.08 3.08 0 0 1-3.075 3.083A3.08 3.08 0 0 1 0 3.084 3.08 3.08 0 0 1 3.075 0z"/><path id="r" fill-rule="evenodd" d="M1.977 0a1.98 1.98 0 0 1 1.976 1.982 1.98 1.98 0 0 1-1.976 1.983A1.98 1.98 0 0 1 0 1.982 1.98 1.98 0 0 1 1.977 0z"/><path id="s" fill-rule="evenodd" d="M.934 0A.935.935 0 1 1 .93 1.87.935.935 0 0 1 .934 0z"/><path id="t" fill-rule="evenodd" d="M1.977 0a1.98 1.98 0 0 1 1.976 1.982 1.98 1.98 0 0 1-1.976 1.983A1.98 1.98 0 0 1 0 1.982 1.98 1.98 0 0 1 1.977 0z"/><path id="u" fill-rule="evenodd" d="M.934 0A.935.935 0 1 1 .93 1.87.935.935 0 0 1 .934 0z"/><path id="v" fill-rule="evenodd" d="M9.48 4.099c-1.27-.012-3.36-.252-5.25-.9C2.749 2.691.896 1.756.49.187a.249.249 0 1 0-.482.126C.831 3.502 6.625 4.566 9.44 4.597c.005-.026.048-.473.04-.498z"/><path id="w" fill-rule="evenodd" d="M.116 0L0 2.267l2.354-.608.804 2.076 2.137-1.097 1.246 1.836L8.272 2.96l-.628-.225-3.05-.54-2.414-.839L.116 0z"/></defs></svg>
